X: 7511
T:the Northern Lass
R:Slow air
O:England
M:6/4
L:1/4
D:Kitsyke Will
A:Lancashire
K:G
E2F G2A|B>AB d3|A2B d2B|A>FE D3|\
E2F G2A|B>cd e=fe|
d/(B/B2) d/B/A/F/G| E6 :|\
d2e =f2e|dB2 d3|A2B d2B|A>FE D3|
d2e =f2e|dB2 d3|B2A B>de|d6|\
e3 =f2e|dB2 d3|A2B d2B|A>FE D3|
E2F G2A|B>cd e=fe|d/(B/B2) d/B/A/F/G|E6|]
